build-source/logos/campus.default.svg

<?xml version="1.0" encoding="UTF-8" standalone="no"?>
<!-- Created with Inkscape (http://www.inkscape.org/) -->

<svg
   xmlns:dc="http://purl.org/dc/elements/1.1/"
   xmlns:cc="http://creativecommons.org/ns#"
   xmlns:rdf="http://www.w3.org/1999/02/22-rdf-syntax-ns#"
   xmlns:svg="http://www.w3.org/2000/svg"
   xmlns="http://www.w3.org/2000/svg"
   xmlns:sodipodi="http://sodipodi.sourceforge.net/DTD/sodipodi-0.dtd"
   xmlns:inkscape="http://www.inkscape.org/namespaces/inkscape"
   width="169.33333mm"
   height="35.384834mm"
   viewBox="0 0 599.99998 125.37933"
   id="svg36712"
   version="1.1"
   inkscape:version="0.91 r"
   sodipodi:docname="campus.svg">
  <defs
     id="defs36714" />
  <sodipodi:namedview
     id="base"
     pagecolor="#ffffff"
     bordercolor="#666666"
     borderopacity="1.0"
     inkscape:pageopacity="0.0"
     inkscape:pageshadow="2"
     inkscape:zoom="0.7"
     inkscape:cx="167.51389"
     inkscape:cy="51.706113"
     inkscape:document-units="px"
     inkscape:current-layer="layer4"
     showgrid="false"
     fit-margin-top="0"
     fit-margin-left="0"
     fit-margin-right="0"
     fit-margin-bottom="0"
     inkscape:window-width="1680"
     inkscape:window-height="1000"
     inkscape:window-x="0"
     inkscape:window-y="0"
     inkscape:window-maximized="1" />
  <metadata
     id="metadata36717">
    <rdf:RDF>
      <cc:Work
         rdf:about="">
        <dc:format>image/svg+xml</dc:format>
        <dc:type
           rdf:resource="http://purl.org/dc/dcmitype/StillImage" />
        <dc:title></dc:title>
      </cc:Work>
    </rdf:RDF>
  </metadata>
  <g
     inkscape:groupmode="layer"
     id="layer4"
     inkscape:label="Layer 4"
     style="display:inline"
     transform="translate(-58.623029,-244.93359)">
    <path
       inkscape:connector-curvature="0"
       style="color:#000000;font-style:normal;font-variant:normal;font-weight:normal;font-stretch:normal;font-size:medium;line-height:normal;font-family:sans-serif;text-indent:0;text-align:start;text-decoration:none;text-decoration-line:none;text-decoration-style:solid;text-decoration-color:#000000;letter-spacing:normal;word-spacing:normal;text-transform:none;direction:ltr;block-progression:tb;writing-mode:lr-tb;baseline-shift:baseline;text-anchor:start;white-space:normal;clip-rule:nonzero;display:inline;overflow:visible;visibility:visible;opacity:1;isolation:auto;mix-blend-mode:normal;color-interpolation:sRGB;color-interpolation-filters:linearRGB;solid-color:#000000;solid-opacity:1;fill:#24265d;fill-opacity:1;fill-rule:nonzero;stroke:none;stroke-width:0.48063719;stroke-linecap:butt;stroke-linejoin:miter;stroke-miterlimit:10;stroke-dasharray:none;stroke-dashoffset:0;stroke-opacity:1;color-rendering:auto;image-rendering:auto;shape-rendering:auto;text-rendering:auto;enable-background:accumulate"
       d="M 588.25974,244.94769 566.5449,266.67621 566.5449,302.43988 583.05271,319.76215 619.92381,319.76215 619.92381,336.46137 604.50193,336.46137 604.50193,326.02387 566.5449,326.02387 566.5449,348.59808 588.25974,370.31293 636.90818,370.31293 658.62303,348.59808 658.62303,348.49848 658.62303,305.9848 643.31248,289.48285 604.50193,289.48285 604.50193,278.99066 619.92381,278.99066 619.92381,285.84418 657.89451,285.84418 657.89451,265.30512 638.08982,244.94769 588.25974,244.94769 Z"
       id="path37711" />
    <path
       style="color:#000000;font-style:normal;font-variant:normal;font-weight:normal;font-stretch:normal;font-size:medium;line-height:normal;font-family:sans-serif;text-indent:0;text-align:start;text-decoration:none;text-decoration-line:none;text-decoration-style:solid;text-decoration-color:#000000;letter-spacing:normal;word-spacing:normal;text-transform:none;direction:ltr;block-progression:tb;writing-mode:lr-tb;baseline-shift:baseline;text-anchor:start;white-space:normal;clip-rule:nonzero;display:inline;overflow:visible;visibility:visible;opacity:1;isolation:auto;mix-blend-mode:normal;color-interpolation:sRGB;color-interpolation-filters:linearRGB;solid-color:#000000;solid-opacity:1;fill:#24265d;fill-opacity:1;fill-rule:nonzero;stroke:none;stroke-width:0.48063719;stroke-linecap:butt;stroke-linejoin:miter;stroke-miterlimit:10;stroke-dasharray:none;stroke-dashoffset:0;stroke-opacity:1;color-rendering:auto;image-rendering:auto;shape-rendering:auto;text-rendering:auto;enable-background:accumulate"
       d="M 458.99217,244.93402 458.99217,278.97699 467.76756,278.97699 467.76756,347.66058 489.48045,370.28363 535.75584,370.28363 557.92185,347.66254 557.92185,278.97699 567.6992,278.97699 567.6992,278.73676 567.6992,244.93402 509.65232,244.93402 509.17185,244.93402 458.99217,244.93402 Z M 504.62693,276.86176 509.17185,276.86176 509.65232,276.86176 519.0449,276.86176 519.0449,336.43402 504.62693,336.43402 504.62693,276.86176 Z"
       id="path37707"
       inkscape:connector-curvature="0" />
    <path
       style="color:#000000;font-style:normal;font-variant:normal;font-weight:normal;font-stretch:normal;font-size:medium;line-height:normal;font-family:sans-serif;text-indent:0;text-align:start;text-decoration:none;text-decoration-line:none;text-decoration-style:solid;text-decoration-color:#000000;letter-spacing:normal;word-spacing:normal;text-transform:none;direction:ltr;block-progression:tb;writing-mode:lr-tb;baseline-shift:baseline;text-anchor:start;white-space:normal;clip-rule:nonzero;display:inline;overflow:visible;visibility:visible;opacity:1;isolation:auto;mix-blend-mode:normal;color-interpolation:sRGB;color-interpolation-filters:linearRGB;solid-color:#000000;solid-opacity:1;fill:#24265d;fill-opacity:1;fill-rule:nonzero;stroke:none;stroke-width:0.48063719;stroke-linecap:butt;stroke-linejoin:miter;stroke-miterlimit:10;stroke-dasharray:none;stroke-dashoffset:0;stroke-opacity:1;color-rendering:auto;image-rendering:auto;shape-rendering:auto;text-rendering:auto;enable-background:accumulate"
       d="M 371.81834,244.93402 371.81834,278.97699 380.68943,278.97699 380.68943,336.44769 371.81834,336.44769 371.81834,370.28363 427.59959,370.28363 427.59959,336.44769 418.19334,336.44769 418.19334,330.78949 449.13279,330.78949 470.65232,308.34418 470.65232,308.24848 470.65232,267.76605 449.13474,244.93402 371.81834,244.93402 Z M 418.33201,278.73676 432.9492,278.73676 432.9492,297.19965 418.33201,297.19965 418.33201,278.73676 Z"
       id="path37701"
       inkscape:connector-curvature="0" />
    <path
       inkscape:connector-curvature="0"
       style="color:#000000;font-style:normal;font-variant:normal;font-weight:normal;font-stretch:normal;font-size:medium;line-height:normal;font-family:sans-serif;text-indent:0;text-align:start;text-decoration:none;text-decoration-line:none;text-decoration-style:solid;text-decoration-color:#000000;letter-spacing:normal;word-spacing:normal;text-transform:none;direction:ltr;block-progression:tb;writing-mode:lr-tb;baseline-shift:baseline;text-anchor:start;white-space:normal;clip-rule:nonzero;display:inline;overflow:visible;visibility:visible;opacity:1;isolation:auto;mix-blend-mode:normal;color-interpolation:sRGB;color-interpolation-filters:linearRGB;solid-color:#000000;solid-opacity:1;fill:#24265d;fill-opacity:1;fill-rule:nonzero;stroke:none;stroke-width:0.48063719;stroke-linecap:butt;stroke-linejoin:miter;stroke-miterlimit:10;stroke-dasharray:none;stroke-dashoffset:0;stroke-opacity:1;color-rendering:auto;image-rendering:auto;shape-rendering:auto;text-rendering:auto;enable-background:accumulate"
       d="M 247.70506,244.93402 247.70506,278.99066 256.56248,278.99066 256.56248,336.44769 247.70506,336.44769 247.70506,370.29926 300.1074,370.29926 300.1074,336.44769 291.23631,336.44769 291.23631,308.58441 304.5781,330.98285 321.30271,330.98285 334.8242,308.57465 334.8242,336.44769 325.77342,336.44769 325.77342,370.29926 378.35545,370.29926 378.35545,370.05707 378.35545,336.44769 369.75974,336.44769 369.75974,278.99066 378.35545,278.99066 378.35545,244.93402 334.92576,244.93402 312.94138,283.10004 291.1367,244.93402 247.70506,244.93402 Z"
       id="path37697" />
    <path
       style="color:#000000;font-style:normal;font-variant:normal;font-weight:normal;font-stretch:normal;font-size:medium;line-height:normal;font-family:sans-serif;text-indent:0;text-align:start;text-decoration:none;text-decoration-line:none;text-decoration-style:solid;text-decoration-color:#000000;letter-spacing:normal;word-spacing:normal;text-transform:none;direction:ltr;block-progression:tb;writing-mode:lr-tb;baseline-shift:baseline;text-anchor:start;white-space:normal;clip-rule:nonzero;display:inline;overflow:visible;visibility:visible;opacity:1;isolation:auto;mix-blend-mode:normal;color-interpolation:sRGB;color-interpolation-filters:linearRGB;solid-color:#000000;solid-opacity:1;fill:#24265d;fill-opacity:1;fill-rule:nonzero;stroke:none;stroke-width:0.48063719;stroke-linecap:butt;stroke-linejoin:miter;stroke-miterlimit:10;stroke-dasharray:none;stroke-dashoffset:0;stroke-opacity:1;color-rendering:auto;image-rendering:auto;shape-rendering:auto;text-rendering:auto;enable-background:accumulate"
       d="M 182.55469,244.93359 152.90625,336.44727 141.58008,336.44727 141.58008,370.29883 192.81641,370.29883 192.81641,338.36914 185.21094,338.36914 187.25977,331.73633 210.75391,331.73633 212.63477,338.36914 204.66797,338.36914 204.66797,370.29883 257.61914,370.29883 257.61914,370.05664 257.61914,336.44727 246.50195,336.44727 218.03516,244.93359 182.55469,244.93359 Z M 198.74414,294.65625 199.26172,294.65625 202.54297,304.01758 195.29688,304.01758 198.74414,294.65625 Z"
       id="path38155"
       inkscape:connector-curvature="0" />
    <path
       inkscape:connector-curvature="0"
       style="color:#000000;font-style:normal;font-variant:normal;font-weight:normal;font-stretch:normal;font-size:medium;line-height:normal;font-family:sans-serif;text-indent:0;text-align:start;text-decoration:none;text-decoration-line:none;text-decoration-style:solid;text-decoration-color:#000000;letter-spacing:normal;word-spacing:normal;text-transform:none;direction:ltr;block-progression:tb;writing-mode:lr-tb;baseline-shift:baseline;text-anchor:start;white-space:normal;clip-rule:nonzero;display:inline;overflow:visible;visibility:visible;opacity:1;isolation:auto;mix-blend-mode:normal;color-interpolation:sRGB;color-interpolation-filters:linearRGB;solid-color:#000000;solid-opacity:1;fill:#24265d;fill-opacity:1;fill-rule:nonzero;stroke:none;stroke-width:0.48063719;stroke-linecap:butt;stroke-linejoin:miter;stroke-miterlimit:10;stroke-dasharray:none;stroke-dashoffset:0;stroke-opacity:1;color-rendering:auto;image-rendering:auto;shape-rendering:auto;text-rendering:auto;enable-background:accumulate"
       d="M 80.708966,244.94769 58.623029,266.37152 58.623029,347.66254 80.70506,370.28558 126.2617,370.28558 149.98435,347.66644 149.98435,347.56488 149.98435,318.33441 112.01365,318.33441 112.01365,336.43402 96.578107,336.43402 96.578107,278.97699 112.01365,278.97699 112.01365,294.05512 149.98435,294.05512 149.98435,267.75238 128.4531,244.94769 80.708966,244.94769 Z"
       id="path37689" />
    <path
       style="display:inline;fill:#ffffff;fill-opacity:1;fill-rule:nonzero;stroke:none"
       d="M 138.49722,342.71663 138.49722,329.46478 123.51507,329.46478 123.51507,340.25851 116.37418,347.5642 92.424716,347.5642 85.11903,340.25851 85.11903,274.1503 92.424716,267.86082 116.37418,267.86082 123.51507,274.1915 123.51507,283.13135 138.49722,283.13135 138.49722,271.47247 123.13056,256.05088 85.297553,256.05088 70.136883,271.41754 70.136883,342.71663 85.297553,359.16815 121.86717,359.16815 138.49722,342.71663"
       id="path30400-3"
       inkscape:connector-curvature="0" />
    <path
       style="display:inline;fill:#ffffff;fill-opacity:1;fill-rule:nonzero;stroke:none"
       d="M 366.88228,359.18188 366.88228,347.57793 358.65652,347.57793 358.65652,267.87455 366.88228,267.87455 366.88228,256.06461 340.99653,256.06461 312.94106,303.05719 285.62713,256.06461 259.19209,256.06461 259.19209,267.87455 267.6101,267.87455 267.6101,347.57793 259.19209,347.57793 259.19209,359.18188 288.63455,359.18188 288.63455,347.57793 280.21653,347.57793 280.21653,269.13794 309.56286,319.68724 316.14073,319.68724 345.66558,269.13794 345.66558,347.57793 337.2613,347.57793 337.2613,359.18188 366.88228,359.18188"
       id="path30404-5"
       inkscape:connector-curvature="0" />
    <path
       style="display:inline;fill:#ffffff;fill-opacity:1;fill-rule:nonzero;stroke:none"
       d="M 383.32029,256.05121 383.32029,267.84613 392.19138,267.84613 392.19138,347.56488 383.32029,347.56488 383.32029,359.18207 416.12693,359.18207 416.12693,347.56488 407.09178,347.56488 407.09178,319.68793 443.82615,319.68793 459.19138,304.32074 459.19138,271.78754 443.82615,256.05121 383.32029,256.05121 Z M 406.91209,267.84613 437.42576,267.84613 444.20896,274.34223 444.20896,301.67035 437.42576,308.26215 406.91209,308.26215 406.91209,267.84613 Z"
       id="path37641"
       inkscape:connector-curvature="0" />
    <path
       style="display:inline;fill:#ffffff;fill-opacity:1;fill-rule:nonzero;stroke:none"
       d="M 556.22587,267.86082 556.22587,256.06461 525.32777,256.06461 525.32777,267.86082 531.08168,267.86082 531.08168,341.08246 524.21543,347.57793 499.63427,347.57793 493.13881,341.08246 493.13881,267.86082 498.34342,267.86082 498.34342,256.06461 469.3816,256.06461 469.3816,267.86082 478.14293,267.86082 478.14293,343.81523 493.31733,359.16815 531.08168,359.16815 546.26981,343.81523 546.26981,267.86082 556.22587,267.86082"
       id="path30412-8"
       inkscape:connector-curvature="0" />
    <path
       style="display:inline;fill:#ffffff;fill-opacity:1;fill-rule:nonzero;stroke:none"
       d="M 646.3934,343.26593 646.3934,310.73366 635.32501,299.66527 597.10749,299.66527 593.00147,295.367 593.00147,274.1503 599.95012,267.83336 624.27036,267.83336 631.39752,274.1503 631.39752,276.08658 646.3934,276.08658 646.3934,271.41754 631.219,256.05088 593.00147,256.05088 578.01933,271.41754 578.01933,297.74272 588.52468,309.5252 627.47003,309.5252 631.39752,313.9196 631.39752,340.60183 624.27036,348.47054 599.95012,348.47054 593.00147,340.60183 593.00147,335.57574 578.01933,335.57574 578.01933,343.26593 593.00147,359.16815 631.02674,359.16815 646.3934,343.26593"
       id="path30416-5"
       inkscape:connector-curvature="0" />
    <path
       style="display:inline;fill:#ffffff;fill-opacity:1;fill-rule:nonzero;stroke:none"
       d="M 190.46092,256.05121 160.20896,347.56488 153.08201,347.56488 153.08201,359.1684 181.3281,359.1684 181.3281,347.56488 171.55076,347.56488 179.85935,323.27191 217.80271,323.27191 225.65818,347.56488 216.15428,347.56488 216.15428,359.1684 246.3242,359.1684 246.3242,347.56488 238.45506,347.56488 209.38474,256.05121 190.46092,256.05121 Z M 198.1367,267.86176 200.43162,267.86176 214.87693,313.74066 182.96287,313.74066 198.1367,267.86176 Z"
       id="path37633"
       inkscape:connector-curvature="0" />
  </g>
</svg>

<svg xmlns="http://www.w3.org/2000/svg" viewBox="0 0 599.99998 125.37933"><g transform="translate(-58.62-244.93)"><g fill="#24265d" color-rendering="auto" shape-rendering="auto" color-interpolation-filters="linearRGB" image-rendering="auto" color-interpolation="sRGB" color="#000"><path d="m588.26 244.95l-21.715 21.729v35.764l16.508 17.322h36.871v16.699h-15.422v-10.438h-37.957v22.574l21.715 21.715h48.648l21.715-21.715v-.1-42.514l-15.311-16.502h-38.811v-10.492h15.422v6.854h37.971v-20.539l-19.805-20.357h-49.83" mix-blend-mode="normal" isolation="auto" white-space="normal" solid-opacity="1" solid-color="#000000"/><path d="m458.99 244.93v34.04h8.775v68.68l21.713 22.623h46.28l22.17-22.621v-68.69h9.777v-.24-33.803h-58.05-.48-50.18m45.635 31.928h4.545.48 9.393v59.57h-14.418v-59.57" mix-blend-mode="normal" isolation="auto" white-space="normal" solid-opacity="1" solid-color="#000000"/><path d="m371.82 244.93v34.04h8.871v57.47h-8.871v33.836h55.781v-33.836h-9.406v-5.658h30.939l21.52-22.445v-.096-40.482l-21.518-22.832h-77.32m46.514 33.803h14.617v18.463h-14.617v-18.463" mix-blend-mode="normal" isolation="auto" white-space="normal" solid-opacity="1" solid-color="#000000"/><path d="m247.71 244.93v34.06h8.857v57.46h-8.857v33.852h52.4v-33.852h-8.871v-27.863l13.342 22.398h16.725l13.521-22.408v27.873h-9.05v33.852h52.582v-.242-33.609h-8.596v-57.46h8.596v-34.06h-43.43l-21.984 38.17-21.805-38.17h-43.43" mix-blend-mode="normal" isolation="auto" white-space="normal" solid-opacity="1" solid-color="#000000"/><path d="m182.55 244.93l-29.648 91.51h-11.326v33.852h51.24v-31.93h-7.605l2.049-6.633h23.494l1.881 6.633h-7.967v31.93h52.951v-.242-33.609h-11.12l-28.467-91.51h-35.48m16.189 49.723h.518l3.281 9.361h-7.246l3.447-9.361" mix-blend-mode="normal" isolation="auto" white-space="normal" solid-opacity="1" solid-color="#000000"/><path d="m80.71 244.95l-22.09 21.424v81.29l22.08 22.623h45.557l23.723-22.619v-.102-29.23h-37.971v18.1h-15.436v-57.46h15.436v15.08h37.971v-26.303l-21.531-22.805h-47.744" mix-blend-mode="normal" isolation="auto" white-space="normal" solid-opacity="1" solid-color="#000000"/></g><g fill="#fff"><path d="m138.5 342.72v-13.252h-14.982v10.794l-7.141 7.306h-23.949l-7.306-7.306v-66.11l7.306-6.289h23.949l7.141 6.331v8.94h14.982v-11.659l-15.367-15.422h-37.833l-15.16 15.367v71.3l15.16 16.452h36.57l16.63-16.452"/><path d="m366.88 359.18v-11.604h-8.226v-79.7h8.226v-11.81h-25.886l-28.06 46.993-27.314-46.993h-26.435v11.81h8.418v79.7h-8.418v11.604h29.442v-11.604h-8.418v-78.44l29.346 50.55h6.578l29.525-50.55v78.44h-8.404v11.604h29.621"/><path d="m383.32 256.05v11.795h8.871v79.72h-8.871v11.617h32.807v-11.617h-9.04v-27.877h36.734l15.365-15.367v-32.533l-15.365-15.736h-60.51m23.592 11.795h30.514l6.783 6.496v27.328l-6.783 6.592h-30.514v-40.42"/><path d="m556.23 267.86v-11.796h-30.898v11.796h5.754v73.22l-6.866 6.495h-24.581l-6.495-6.495v-73.22h5.205v-11.796h-28.962v11.796h8.761v75.954l15.174 15.353h37.764l15.188-15.353v-75.954h9.956"/><path d="m646.39 343.27v-32.532l-11.07-11.07h-38.22l-4.106-4.298v-21.22l6.949-6.317h24.32l7.127 6.317v1.936h14.996v-4.669l-15.174-15.367h-38.22l-14.982 15.367v26.325l10.505 11.782h38.945l3.927 4.394v26.682l-7.127 7.869h-24.32l-6.949-7.869v-5.03h-14.982v7.69l14.982 15.902h38.03l15.367-15.902"/><path d="m190.46 256.05l-30.25 91.51h-7.127v11.604h28.25v-11.604h-9.777l8.309-24.293h37.943l7.855 24.293h-9.504v11.604h30.17v-11.604h-7.869l-29.07-91.51h-18.924m7.676 11.811h2.295l14.445 45.879h-31.914l15.174-45.879"/></g></g></svg>
